X:35
T: Die Frau zur Weissenburg
N: A0034
O: Europa, Mitteleuropa, Deutschland
N: Melodie (Text von Boehme willkuerlich unterlegt): Souterliedekens
N: 1540 ad Ps. 137.
R: Romanze, Ballade, Lied
M: 3/2
L: 1/4
K: G
G2 | G4G2 | A4A2 | _B4G2 | =F4
F2 | _B4c2 | d4c2 | d3c_B2 | A4
A2 | d2d2d2 | _B4c2 | _B2A2G2 | =F4
F2 | G3A_B2 | c4_B2 | A6 | G4

